X: 10061
M: 3/4
L: 1/8
K: G
V: 1 staves=3
!p!GA |\
|: FG |\
V: 2
|: DE |\
V: 3 clef=bass middle=d
z2 |\
g2 g2 z2 | d2 d2 z2 | e2 c2 ^c2 | d2 d2 z2 |\
g2 g2 z2 | d2 d2 z2 | B2 c2 d2 | G2 z2 :|
|: z2 |\
d2 d2 z2 | g2 g2 z2 | d2 d2 c2 | d4 z2 |\
g2 g2 z2 | d2 d2 z2 | B2 c2 d2 | G2 z2 :|


